build/images/icons/step4.svg

<svg height="60" width="60" xmlns="http://www.w3.org/2000/svg"><path d="M36 35a1 1 0 01-1 1h-1v5a1 1 0 11-2 0V22.486L24.805 34H29a1 1 0 110 2h-6a1 1 0 01-.848-1.53l10-16A1 1 0 0134 19v15h1a1 1 0 011 1m-6 23C14.561 58 2 45.439 2 30S14.561 2 30 2s28 12.561 28 28-12.561 28-28 28m0-58C13.458 0 0 13.458 0 30s13.458 30 30 30 30-13.458 30-30S46.542 0 30 0" fill="#008fcb" fill-rule="evenodd"/></svg>

<?xml version="1.0" ?><svg height="60px" version="1.1" viewBox="0 0 60 60" width="60px" xmlns="http://www.w3.org/2000/svg" xmlns:xlink="http://www.w3.org/1999/xlink"><title/><desc/><defs/><g fill="none" fill-rule="evenodd" id="People" stroke="none" stroke-width="1"><g fill="#000000" id="Icon-74"><path d="M36,35 C36,35.553 35.553,36 35,36 L34,36 L34,41 C34,41.553 33.553,42 33,42 C32.447,42 32,41.553 32,41 L32,22.486 L24.805,34 L29,34 C29.553,34 30,34.447 30,35 C30,35.553 29.553,36 29,36 L23,36 C22.637,36 22.302,35.803 22.125,35.484 C21.949,35.167 21.959,34.778 22.152,34.47 L32.152,18.47 C32.388,18.091 32.851,17.914 33.275,18.039 C33.704,18.162 34,18.554 34,19 L34,34 L35,34 C35.553,34 36,34.447 36,35 M30,58 C14.561,58 2,45.439 2,30 C2,14.561 14.561,2 30,2 C45.439,2 58,14.561 58,30 C58,45.439 45.439,58 30,58 M30,0 C13.458,0 0,13.458 0,30 C0,46.542 13.458,60 30,60 C46.542,60 60,46.542 60,30 C60,13.458 46.542,0 30,0" id="number-four" fill="#008fcb"/></g></g></svg>
